X: 473
T:Thousand Farewell, A
C:Sean Ryan
S:The Hidden Ireland
Z:Philippe Varlet
L:1/8
M:6/8
N:Posted to the woodenflute mailing list January 2002
K:D
dAF EFE | DB,A, ~A,3 | FEF BAF | dAF EFA |
dAF EFE | DB,A, ~A,3 | FEF BAF | EDC DFA :||
dcd fed | afd edB | AFE DFA | BAF EFA |
dcd fed | afd edA | B/c/dB AFA | Bdc d2 A :||
<end>
<start>
